!!! OTL: Berkowitz248
!!! Chapter: 1
!!! Section: II
!!! Page: 57
!!! Mode: 
!!! Encoder: DJB
**kern
*staff1
*I"Piano
=1-
*clefF4
*k[b-e-a-]
*c:
*M3/4
4GG/
4.G\
8F\
=2
4E-\
4D\
4C/
=3
4.BBn/
8C/
4D\
=4
4E-\
4F\
4G\
=5
4GG/
4G\
4F\
=6
4.E-\
8D\
4C/
=7
4BBn/
4.AAn/
8BB/
=8
2.C/
=9
4BB-/
4B-\
4A-\
=10
4.G\
8F\
4E-\
=11
!!linebreak:original
4GG/
4.G\
8F\
=12
4.E-\
8D\
4C/
=13
4AA-/
4F\
4E-\
=14
4D\
4E-\
4F\
=15
4G\
4.An\
8Bn\
=16
2.c\
==
*-
